assets/icons/static_dynamic_events/cost_report.svg

<svg fill="none" height="50" viewBox="0 0 50 50" width="50" xmlns="http://www.w3.org/2000/svg" xmlns:xlink="http://www.w3.org/1999/xlink"><clipPath id="a"><path d="m0 0h50v50h-50z"/></clipPath><g clip-path="url(#a)"><path clip-rule="evenodd" d="m30.7821 45.1159h-30.7821v-45.1159h45.2554v30.8926c-.4141-.2594-.8447-.4882-1.2882-.6855 1.0483.5031 2.0054 1.1795 2.83 2.0016.9616.9585 1.7243 2.0965 2.2446 3.3489.5204 1.2524.7882 2.5947.7882 3.9503 0 2.0416-.6072 4.0374-1.745 5.735-1.1378 1.6975-2.755 3.0206-4.647 3.8019-1.8921.7813-3.974.9857-5.9826.5874s-3.8536-1.3814-5.3017-2.825c-.5183-.5167-.9774-1.084-1.3716-1.6913zm-1.6612-35.82304c0 .13338-.0532.26131-.1478.35563s-.2229.14731-.3567.14731h-11.9774c-.1338 0-.2621-.05299-.3567-.14731s-.1478-.22224-.1478-.35563v-3.30955c0-.13339.0532-.26132.1478-.35564s.2229-.14731.3567-.14731h11.9774c.0662 0 .1318.01301.193.03828.0612.02528.1169.06233.1637.10903s.084.10215.1094.16317c.0253.06102.0384.12642.0384.19247zm7.0004 27.98464c.023-.7096.2865-1.3905.7475-1.9317.461-.5411 1.0923-.9106 1.791-1.0481l-.0164-.6738c-.0033-.1054.0144-.2105.052-.3091s.0944-.1888.1671-.2654c.0728-.0766.16-.1381.2567-.181s.2009-.0662.3067-.0687c.1058-.0026.211.0158.3096.054.0987.0383.1887.0955.2651.1686.0763.0731.1373.1605.1796.2572s.065.2008.0667.3063l.0177.732c.8426.1766 1.5996.6347 2.1454 1.2986.116.1772.1568.393.1135.6002-.0434.2071-.1673.3887-.3447.5048-.1774.1162-.3938.1575-.6017.115-.2079-.0426-.3904-.1656-.5075-.3421-.4407-.3987-1.0012-.6412-1.5943-.6898-.215-.0366-.4355-.0259-.6459.0312-.2105.0572-.4059.1595-.5726.2997-.1668.1402-.3008.3151-.3927.5123s-.1395.4121-.1395.6295c0 .2175.0476.4323.1395.6296.0919.1972.2259.372.3927.5123.1667.1402.3621.2425.5726.2996.2104.0572.4309.0678.6459.0313.8528-.0337 1.6843.2705 2.3128.8462.6286.5756 1.003 1.3758 1.0415 2.2258-.0227.7093-.2859 1.3901-.7466 1.9312-.4607.541-1.0917.9105-1.7901 1.0481l.0143.5909c.0051.2119-.0744.4172-.2211.5707-.1467.1534-.3486.2425-.5611.2477h-.0194c-.2093-.0001-.4102-.0818-.56-.2276-.1498-.1457-.2364-.3441-.2416-.5527l-.0151-.6143c-.729-.1795-1.3893-.5679-1.8995-1.1172-.0766-.072-.1382-.1584-.1813-.2541-.0432-.0958-.0669-.1991-.07-.3041-.0031-.1049.0146-.2094.052-.3076.0375-.0981.0939-.1879.1662-.2643.0722-.0764.1589-.1378.255-.1808.096-.043.1997-.0667.3049-.0698.1053-.0031.2102.0146.3086.0519s.1885.0936.2651.1656c.1896.2377.4307.4293.7052.5607s.5754.199.8799.1978c.215.0366.4354.026.6459-.0311.2105-.0572.4059-.1594.5727-.2997.1667-.1402.3007-.315.3926-.5122s.1396-.4121.1396-.6296c0-.2174-.0477-.4323-.1396-.6295s-.2259-.372-.3926-.5123c-.1668-.1402-.3622-.2424-.5727-.2996-.2105-.0571-.4309-.0677-.6459-.0311-.8527.0336-1.684-.2706-2.3123-.8462-.6284-.5755-1.0029-1.3755-1.0414-2.2253zm-1.4747 9.435c1.4293.9522 3.1098 1.4603 4.8288 1.4604 1.1414 0 2.2717-.2242 3.3262-.6596 1.0545-.4355 2.0127-1.0737 2.8198-1.8783.8071-.8047 1.4473-1.7599 1.8841-2.8112.4368-1.0512.6617-2.178.6617-3.3159-.0001-1.7137-.5098-3.389-1.4649-4.814-.955-1.4249-2.3125-2.5355-3.9007-3.1913-1.5882-.6559-3.3358-.8275-5.0218-.4931-1.6861.3343-3.2348 1.1596-4.4503 2.3714-1.2156 1.2118-2.0434 2.7557-2.3788 4.4366-.3354 1.6808-.1632 3.423.4946 5.0063.6579 1.5834 1.7719 2.9366 3.2013 3.8887z" fill="#525252" fill-rule="evenodd"/></g></svg>

<svg width="50" height="50" viewBox="0 0 50 50" fill="none" xmlns="http://www.w3.org/2000/svg">
<g clip-path="url(#clip0_425_630)">
<path fill-rule="evenodd" clip-rule="evenodd" d="M30.7821 45.1159H0V0H45.2554V30.8926C44.8413 30.6332 44.4107 30.4044 43.9672 30.2071C45.0155 30.7102 45.9726 31.3866 46.7972 32.2087C47.7588 33.1672 48.5215 34.3052 49.0418 35.5576C49.5622 36.81 49.83 38.1523 49.83 39.5079C49.83 41.5495 49.2228 43.5453 48.085 45.2429C46.9472 46.9404 45.33 48.2635 43.438 49.0448C41.5459 49.8261 39.464 50.0305 37.4554 49.6322C35.4468 49.2339 33.6018 48.2508 32.1537 46.8072C31.6354 46.2905 31.1763 45.7232 30.7821 45.1159ZM29.1209 9.29286C29.1209 9.42624 29.0677 9.55417 28.9731 9.64849C28.8785 9.74281 28.7502 9.7958 28.6164 9.7958H16.639C16.5052 9.7958 16.3769 9.74281 16.2823 9.64849C16.1877 9.55417 16.1345 9.42625 16.1345 9.29286V5.98331C16.1345 5.84992 16.1877 5.72199 16.2823 5.62767C16.3769 5.53335 16.5052 5.48036 16.639 5.48036H28.6164C28.6826 5.48036 28.7482 5.49337 28.8094 5.51864C28.8706 5.54392 28.9263 5.58097 28.9731 5.62767C29.0199 5.67437 29.0571 5.72982 29.0825 5.79084C29.1078 5.85186 29.1209 5.91726 29.1209 5.98331V9.29286ZM36.1213 37.2775C36.1443 36.5679 36.4078 35.887 36.8688 35.3458C37.3298 34.8047 37.9611 34.4352 38.6598 34.2977L38.6434 33.6239C38.6401 33.5185 38.6578 33.4134 38.6954 33.3148C38.733 33.2162 38.7898 33.126 38.8625 33.0494C38.9353 32.9728 39.0225 32.9113 39.1192 32.8684C39.2159 32.8255 39.3201 32.8022 39.4259 32.7997C39.5317 32.7971 39.6369 32.8155 39.7355 32.8537C39.8342 32.892 39.9242 32.9492 40.0006 33.0223C40.0769 33.0954 40.1379 33.1828 40.1802 33.2795C40.2225 33.3762 40.2452 33.4803 40.2469 33.5858L40.2646 34.3178C41.1072 34.4944 41.8642 34.9525 42.41 35.6164C42.526 35.7936 42.5668 36.0094 42.5235 36.2166C42.4801 36.4237 42.3562 36.6053 42.1788 36.7214C42.0014 36.8376 41.785 36.8789 41.5771 36.8364C41.3692 36.7938 41.1867 36.6708 41.0696 36.4943C40.6289 36.0956 40.0684 35.8531 39.4753 35.8045C39.2603 35.7679 39.0398 35.7786 38.8294 35.8357C38.6189 35.8929 38.4235 35.9952 38.2568 36.1354C38.09 36.2756 37.956 36.4505 37.8641 36.6477C37.7722 36.8449 37.7246 37.0598 37.7246 37.2772C37.7246 37.4947 37.7722 37.7095 37.8641 37.9068C37.956 38.104 38.09 38.2788 38.2568 38.4191C38.4235 38.5593 38.6189 38.6616 38.8294 38.7187C39.0398 38.7759 39.2603 38.7865 39.4753 38.75C40.3281 38.7163 41.1596 39.0205 41.7881 39.5962C42.4167 40.1718 42.7911 40.972 42.8296 41.822C42.8069 42.5313 42.5437 43.2121 42.083 43.7532C41.6223 44.2942 40.9913 44.6637 40.2929 44.8013L40.3072 45.3922C40.3123 45.6041 40.2328 45.8094 40.0861 45.9629C39.9394 46.1163 39.7375 46.2054 39.525 46.2106H39.5056C39.2963 46.2105 39.0954 46.1288 38.9456 45.983C38.7958 45.8373 38.7092 45.6389 38.704 45.4303L38.6889 44.816C37.9599 44.6365 37.2996 44.2481 36.7894 43.6988C36.7128 43.6268 36.6512 43.5404 36.6081 43.4447C36.5649 43.3489 36.5412 43.2456 36.5381 43.1406C36.535 43.0357 36.5527 42.9312 36.5901 42.833C36.6276 42.7349 36.684 42.6451 36.7563 42.5687C36.8285 42.4923 36.9152 42.4309 37.0113 42.3879C37.1073 42.3449 37.211 42.3212 37.3162 42.3181C37.4215 42.315 37.5264 42.3327 37.6248 42.37C37.7232 42.4073 37.8133 42.4636 37.8899 42.5356C38.0795 42.7733 38.3206 42.9649 38.5951 43.0963C38.8696 43.2277 39.1705 43.2953 39.475 43.2941C39.69 43.3307 39.9104 43.3201 40.1209 43.263C40.3314 43.2058 40.5268 43.1036 40.6936 42.9633C40.8603 42.8231 40.9943 42.6483 41.0862 42.4511C41.1781 42.2539 41.2258 42.039 41.2258 41.8215C41.2258 41.6041 41.1781 41.3892 41.0862 41.192C40.9943 40.9948 40.8603 40.82 40.6936 40.6797C40.5268 40.5395 40.3314 40.4373 40.1209 40.3801C39.9104 40.323 39.69 40.3124 39.475 40.349C38.6223 40.3826 37.791 40.0784 37.1627 39.5028C36.5343 38.9273 36.1598 38.1273 36.1213 37.2775ZM34.6466 46.7125C36.0759 47.6647 37.7564 48.1728 39.4754 48.1729C40.6168 48.1729 41.7471 47.9487 42.8016 47.5133C43.8561 47.0778 44.8143 46.4396 45.6214 45.635C46.4285 44.8303 47.0687 43.8751 47.5055 42.8238C47.9423 41.7726 48.1672 40.6458 48.1672 39.5079C48.1671 37.7942 47.6574 36.1189 46.7023 34.6939C45.7473 33.269 44.3898 32.1584 42.8016 31.5026C41.2134 30.8467 39.4658 30.6751 37.7798 31.0095C36.0937 31.3438 34.545 32.1691 33.3295 33.3809C32.1139 34.5927 31.2861 36.1366 30.9507 37.8175C30.6153 39.4983 30.7875 41.2405 31.4453 42.8238C32.1032 44.4072 33.2172 45.7604 34.6466 46.7125Z" fill="#525252"/>
</g>
<defs>
<clipPath id="clip0_425_630">
<rect width="50" height="50" fill="white"/>
</clipPath>
</defs>
</svg>
